src/static/logos/lookback.svg

<?xml version="1.0" encoding="UTF-8" standalone="no"?>
<svg width="256px" height="121px" viewBox="0 0 256 121" version="1.1" xmlns="http://www.w3.org/2000/svg" xmlns:xlink="http://www.w3.org/1999/xlink" preserveAspectRatio="xMidYMid">
    <g>
        <path d="M195.984657,0 C182.039713,0 164.856047,8.467058 143.191337,25.8989171 C137.4639,30.6308674 132.234207,35.1132679 127.751807,39.0979254 C123.518956,35.1132679 118.289262,30.6308674 112.312276,25.8989171 C90.8957596,8.467058 73.4639005,0 59.7671491,0 C26.8944034,0 0,27.143953 0,60.2648922 C0,93.6340249 26.8944034,120.529784 59.7671491,120.529784 C73.7120939,120.529784 90.8957596,112.062726 112.56047,94.6308674 C118.287906,89.8989171 123.517599,85.4165166 128,81.4318591 C132.232851,85.4165166 137.462544,89.8989171 143.43953,94.6308674 C165.105597,112.062726 182.287906,120.529784 196.232851,120.529784 C229.10424,120.529784 256,93.3858314 256,60.2648922 C255.751807,27.143953 228.856047,0 195.984657,0 L195.984657,0 Z M93.3858314,70.724279 C70.724279,88.6538812 61.2617347,89.6507237 59.7671491,89.6507237 C43.8298756,89.6507237 30.880417,76.4517154 30.880417,60.2648922 C30.880417,44.078069 43.8298756,30.8790608 59.7671491,30.8790608 C61.5099282,30.8790608 70.724279,31.874547 93.3858314,49.8055055 C97.868232,53.2924198 102.102439,57.0275276 105.587997,60.2648922 C101.852889,63.5022569 97.868232,66.9891712 93.3858314,70.724279 L93.3858314,70.724279 Z M136.964801,74.4593867 L116.295577,73.2143508 L114.552798,53.2924198 L127.502257,39.347475 L128.996842,59.269406 L149.915616,60.5144419 L136.964801,74.4593867 L136.964801,74.4593867 Z M195.984657,89.6507237 C194.241878,89.6507237 185.027528,88.6552374 162.365975,70.724279 C157.883575,67.2373646 153.649367,63.5022569 150.163809,60.2648922 C153.650724,57.0275276 157.883575,53.5406133 162.117782,50.0550552 C184.779334,31.8759033 194.241878,30.880417 195.736464,30.880417 C211.673738,30.880417 224.623196,44.0794253 224.623196,60.2662485 C224.87139,76.4517154 211.921931,89.6507237 195.984657,89.6507237 L195.984657,89.6507237 Z" fill="#BC1B23"></path>
    </g>
</svg>

<svg width="256" height="121" xmlns="http://www.w3.org/2000/svg" preserveAspectRatio="xMidYMid"><path d="M195.985 0c-13.945 0-31.129 8.467-52.794 25.899a569.104 569.104 0 00-15.44 13.199c-4.232-3.985-9.462-8.467-15.439-13.2C90.896 8.469 73.464 0 59.767 0 26.894 0 0 27.144 0 60.265c0 33.369 26.894 60.265 59.767 60.265 13.945 0 31.129-8.467 52.793-25.9A569.107 569.107 0 00128 81.433c4.233 3.985 9.463 8.467 15.44 13.199 21.666 17.432 38.848 25.899 52.793 25.899 32.871 0 59.767-27.144 59.767-60.265C255.752 27.144 228.856 0 195.985 0zm-102.6 70.724c-22.66 17.93-32.123 18.927-33.618 18.927-15.937 0-28.887-13.2-28.887-29.386 0-16.187 12.95-29.386 28.887-29.386 1.743 0 10.957.996 33.619 18.927 4.482 3.486 8.716 7.222 12.202 10.459-3.735 3.237-7.72 6.724-12.202 10.46zm43.58 3.735l-20.67-1.245-1.742-19.922 12.95-13.945 1.494 19.922 20.919 1.245-12.951 13.945zm59.02 15.192c-1.743 0-10.957-.996-33.619-18.927-4.482-3.487-8.717-7.222-12.202-10.46 3.487-3.236 7.72-6.723 11.954-10.209 22.661-18.18 32.124-19.175 33.618-19.175 15.938 0 28.887 13.2 28.887 29.386.248 16.186-12.701 29.385-28.638 29.385z" fill="#BC1B23"/></svg>
